assets/img/braze_icons/clapperboard.svg

<svg fill="none" height="24" viewBox="0 0 24 24" width="24" xmlns="http://www.w3.org/2000/svg"><g fill="#801ed7"><path d="m7.78874 2.95696c.06561-.32801.09841-.49201.054-.62036-.03894-.11258-.1168-.20755-.21955-.26782-.11715-.06871-.28441-.06871-.61891-.06871h-.24558c-.80495-.00001-1.46934-.00002-2.01052.04419-.5621.04593-1.0788.14449-1.56414.39178-.75265.3835-1.36457.99542-1.74806 1.74807-.2473.48533-.34586 1.00204-.39178 1.56413-.01478.18087-.02217.2713-.01002.3718.04914.40669.39102.77764.79235.85974.09919.02029.20877.02029.42793.02029h4.06982c.23362 0 .35043 0 .44617-.04184.08443-.0369.15702-.09641.20976-.17197.05981-.08567.08272-.20022.12853-.4293z"/><path d="m9.21111 6.04318c-.0656.328-.0984.49201-.054.62036.03895.11258.11681.20755.21956.26782.11715.06871.2844.06871.6189.06871h3.32873c.2336 0 .3504 0 .4462-.04184.0844-.0369.157-.09641.2097-.17197.0598-.08567.0827-.20022.1285-.4293l.68-3.4c.0656-.32801.0984-.49201.054-.62036-.0389-.11258-.1168-.20755-.2195-.26782-.1172-.06871-.2844-.06871-.6189-.06871h-3.3287c-.2336 0-.3505 0-.4462.04184-.0844.0369-.157.09641-.2098.17196-.05977.08568-.08267.20022-.12849.42931z"/><path d="m17.6756 1.99819c-.2341.0005-.3511.00074-.4466.04266-.0844.03703-.1566.09634-.2093.17193-.0596.08558-.0826.20052-.1286.4304l-.68 3.39999c-.0656.32801-.0984.49202-.054.62037.039.11258.1168.20755.2196.26782.1171.06871.2844.06871.6189.06871h4.7499c.2192 0 .3288 0 .428-.02029.4013-.0821.7432-.45304.7923-.85973.0122-.1005.0048-.19093-.01-.37177-.0459-.56209-.1445-1.07884-.3918-1.56417-.3835-.75265-.9954-1.36457-1.748-1.74807-.4854-.24729-1.0021-.34585-1.5642-.39178-.5237-.04279-1.0502-.04718-1.5762-.04607z"/><path d="m22.891 9.54608c.109.21391.109.49392.109 1.05402v5.6413c0 .805 0 1.4693-.0442 2.0105-.0459.5621-.1445 1.0788-.3918 1.5641-.3835.7527-.9954 1.3646-1.748 1.7481-.4854.2473-1.0021.3459-1.5642.3918-.5412.0442-1.2055.0442-2.0105.0442h-10.48262c-.80496 0-1.46931 0-2.0105-.0442-.5621-.0459-1.0788-.1445-1.56414-.3918-.75265-.3835-1.36457-.9954-1.74806-1.7481-.2473-.4853-.34586-1.002-.39178-1.5641-.044221-.5412-.044212-1.2056-.0442-2.0105v-5.6413c0-.5601 0-.84011.10899-1.05402.09588-.18816.24886-.34114.43702-.43702.21391-.10899.49394-.10899 1.05399-.10899h18.8c.5601 0 .8401 0 1.054.10899.1882.09588.3411.24886.437.43702z"/></g></svg>

<svg width="24" height="24" viewBox="0 0 24 24" fill="none" xmlns="http://www.w3.org/2000/svg">
<path d="M7.78874 2.95696C7.85435 2.62895 7.88715 2.46495 7.84274 2.3366C7.8038 2.22402 7.72594 2.12905 7.62319 2.06878C7.50604 2.00007 7.33878 2.00007 7.00428 2.00007H6.7587C5.95375 2.00006 5.28936 2.00005 4.74818 2.04426C4.18608 2.09019 3.66938 2.18875 3.18404 2.43604C2.43139 2.81954 1.81947 3.43146 1.43598 4.18411C1.18868 4.66944 1.09012 5.18615 1.0442 5.74824C1.02942 5.92911 1.02203 6.01954 1.03418 6.12004C1.08332 6.52673 1.4252 6.89768 1.82653 6.97978C1.92572 7.00007 2.0353 7.00007 2.25446 7.00007H6.32428C6.5579 7.00007 6.67471 7.00007 6.77045 6.95823C6.85488 6.92133 6.92747 6.86182 6.98021 6.78626C7.04002 6.70059 7.06293 6.58604 7.10874 6.35696L7.78874 2.95696Z" fill="#801ED7"/>
<path d="M9.21111 6.04318C9.14551 6.37118 9.11271 6.53519 9.15711 6.66354C9.19606 6.77612 9.27392 6.87109 9.37667 6.93136C9.49382 7.00007 9.66107 7.00007 9.99557 7.00007H13.3243C13.5579 7.00007 13.6747 7.00007 13.7705 6.95823C13.8549 6.92133 13.9275 6.86182 13.9802 6.78626C14.04 6.70059 14.0629 6.58604 14.1087 6.35696L14.7887 2.95696C14.8543 2.62895 14.8871 2.46495 14.8427 2.3366C14.8038 2.22402 14.7259 2.12905 14.6232 2.06878C14.506 2.00007 14.3388 2.00007 14.0043 2.00007H10.6756C10.442 2.00007 10.3251 2.00007 10.2294 2.04191C10.145 2.07881 10.0724 2.13832 10.0196 2.21387C9.95983 2.29955 9.93693 2.41409 9.89111 2.64318L9.21111 6.04318Z" fill="#801ED7"/>
<path d="M17.6756 1.99819C17.4415 1.99869 17.3245 1.99893 17.229 2.04085C17.1446 2.07788 17.0724 2.13719 17.0197 2.21278C16.9601 2.29836 16.9371 2.4133 16.8911 2.64318L16.2111 6.04317C16.1455 6.37118 16.1127 6.53519 16.1571 6.66354C16.1961 6.77612 16.2739 6.87109 16.3767 6.93136C16.4938 7.00007 16.6611 7.00007 16.9956 7.00007H21.7455C21.9647 7.00007 22.0743 7.00007 22.1735 6.97978C22.5748 6.89768 22.9167 6.52674 22.9658 6.12005C22.978 6.01955 22.9706 5.92912 22.9558 5.74828C22.9099 5.18619 22.8113 4.66944 22.564 4.18411C22.1805 3.43146 21.5686 2.81954 20.816 2.43604C20.3306 2.18875 19.8139 2.09019 19.2518 2.04426C18.7281 2.00147 18.2016 1.99708 17.6756 1.99819Z" fill="#801ED7"/>
<path d="M22.891 9.54608C23 9.75999 23 10.04 23 10.6001V16.2414C23 17.0464 23 17.7107 22.9558 18.2519C22.9099 18.814 22.8113 19.3307 22.564 19.816C22.1805 20.5687 21.5686 21.1806 20.816 21.5641C20.3306 21.8114 19.8139 21.91 19.2518 21.9559C18.7106 22.0001 18.0463 22.0001 17.2413 22.0001H6.75868C5.95372 22.0001 5.28937 22.0001 4.74818 21.9559C4.18608 21.91 3.66938 21.8114 3.18404 21.5641C2.43139 21.1806 1.81947 20.5687 1.43598 19.816C1.18868 19.3307 1.09012 18.814 1.0442 18.2519C0.999979 17.7107 0.999988 17.0463 1 16.2414V10.6001C1 10.04 1 9.75999 1.10899 9.54608C1.20487 9.35792 1.35785 9.20494 1.54601 9.10906C1.75992 9.00007 2.03995 9.00007 2.6 9.00007H21.4C21.9601 9.00007 22.2401 9.00007 22.454 9.10906C22.6422 9.20494 22.7951 9.35792 22.891 9.54608Z" fill="#801ED7"/>
</svg>
